!!!!SEGMENT: pl-kk--kk-i-122--004_anonim--alleluia-virga-iesse.krn
!!!cenid: 18xx:2550
!!!COM: Anonim
!!!COM-rismID: pe30004985
!!!CDT:
!!!CNT:
!!!OTL: Alleluia Virga Iesse
!!!OMV: 004
!!!PDT:
!!!AGN: Sacred
!!!SMS-siglum: PL-Kk
!!!SMS-shelfmark: Kk.I.122
!!!SMS-shelfwork: W
!!!SMS-variant: Baſso PL-Kk KK.I.122:0014
!!!SMS-altvar: Baſsô PL-Kk KK.I.122:0002
!!!NIFC-rismSourceID: 1001153683
!!!NIFC-islandoraID: pl-kk:3474
!!!URL-pdf-islandora: https://repozytorium.nifc.pl/islandora/object/pl-kk%3A3474/datastream/PDF/view
!!!URL-scan: https://polish.musicsources.pl/pl/lokalizacje/galeria/rekopisy/5755 @EN{Scan on Polish Music Sources Website} @PL{Skany w portalu Dziedzictwo Muzyki Polskiej w otwartym dostępie}
!!!ONB-nifc: UWAGA: w zbiorze 5 Alleluia Virga Iesse. Numeracja plików zgodna ze źródłową.
!!!AIN: 1 alto 1 empty 1 tenor 1 vox
!!!key:
**kern	**text	**kern	**text	**kern	**text	**kern	**text
*part4	*part4	*part3	*part3	*part2	*part2	*part1	*part1
*staff4	*staff4	*staff3	*staff3	*staff2	*staff2	*staff1	*staff1
*Iempty	*	*Itenor	*	*Ialto	*	*Ivox	*
*I"Baſso	*	*I"Tenore	*	*I"Alto	*	*I"Canto	*
*I'B	*	*I'T	*	*I'A	*	*I'S	*
*clefF4	*	*clefC4	*	*clefC3	*	*clefC1	*
*k[b-]	*	*k[b-]	*	*k[b-]	*	*k[b-]	*
*F:	*	*F:	*	*F:	*	*F:	*
*M2/2	*	*M2/2	*	*M2/2	*	*M2/2	*
*met(c|)	*	*met(c|)	*	*met(c|)	*	*met(c|)	*
*2\right	*	*2\right	*	*2\right	*	*2\right	*
=1	=1	=1	=1	=1	=1	=1	=1
!LO:TX:a:t=N&colon; 4	!	!	!	!	!	!	!
!	!	!LO:TX:a:t=N&colon; 4	!	!	!	!	!
!	!	!	!	!LO:TX:a:t=N&colon; 4	!	!LO:TX:t=P:problem=all2\right&colon; global	!
!	!	!	!	!	!	!LO:TX:a:t=N&colon; 4	!
2F\	Al-	2c\	Al-	2a\	Al-	2ff\	Al-
4C\	-le-	4c\	le-	4g\	-le-	4ee\	-le-
4E\	.	4B-\	.	4b-\	.	4dd\	.
=2	=2	=2	=2	=2	=2	=2	=2
4F\	-lu-	4A\	-lu-	4a\	-lu-	4cc\	lu-
4C\	.	4B-\	.	4g\	.	4b-\	.
2F\	-ia	2c\	-ia	2f\	-ia	2a\	-ia
=3	=3	=3	=3	=3	=3	=3	=3
4E\	al-	4c\	al-	4g\	al-	4b-\	al-
4F\	-le-	4c\	-le-	4f\	-le-	4a\	le-
2C/	-lu-	2c\	-lu-	4g\	-lu-	4b-\	-lu-
.	.	.	.	4e\	.	4g\	.
=4	=4	=4	=4	=4	=4	=4	=4
2F\	-ia.	2c\	-ia	2f\	-ia.	2a\	-ia
2F\	Vir-	2c\	Vir-	2f\	Vir-	2a\	Vir-
=5	=5	=5	=5	=5	=5	=5	=5
2F\	.	2c\	.	2f\	.	2a\	.
2F\	-ga	2A\	-ga	2a\	-ga	2cc\	-ga
=6	=6	=6	=6	=6	=6	=6	=6
4E\	Jeſ-	4c\	Jeſ-	4g\	Jeſ-	4b-\	Jeſ-
4F\	-se	4c\	-se	4f\	-se	4a\	-se
!	!	!	!	!LO:LB:g=original	!	!LO:LB:g=original	!
4C/	flo-	4c\	flo-	4g\	flo-	4b-\	flo-
4C/	-ru-	4c\	-ru-	4e\	-ru-	4g\	-ru-
=7	=7	=7	=7	=7	=7	=7	=7
!LO:LB:g=original	!	!LO:LB:g=original	!	!	!	!	!
2F\	-it.	2c\	-it.	2f\	-it.	2a\	-it.
4F\	Vir-	4c\	Vir-	4f\	Vir-	4a\	Vir-
4F\	-go	4c\	-go	4f\	-go	4a\	-go
=8	=8	=8	=8	=8	=8	=8	=8
2F\	De-	2G/	De-	2d\	De-	2bn\	De-
4E\	-um	4G/	-um	4e\	-um	4cc\	-um
4E\	et	4G/	et	4e\	et	4cc\	et
=9	=9	=9	=9	=9	=9	=9	=9
4BBn/	ho-	4G/	ho-	4f\	ho-	4dd\	ho-
4BB/	-mi-	4G/	-mi-	4f\	-mi-	4dd\	-mi-
2C/	-nem	2G/	-nem	2g\	-nem	2ee\	-nem
=10	=10	=10	=10	=10	=10	=10	=10
2F\	ge-	4c\	ge-	4a\	ge-	4ff\	ge-
.	.	4A\	.	4f\	.	4dd\	.
4G\	.	4G/	.	4e\	.	4cc\	.
4GG/	-nu-	4G/	-nu-	4d\	-nu-	4bn\	-nu-
=11	=11	=11	=11	=11	=11	=11	=11
2C/	-it	2G/	-it	2e\	-it	2cc\	-it
2r	.	2r	.	2r	.	2r	.
=12	=12	=12	=12	=12	=12	=12	=12
!	!	!	!	!	!	!LO:LB:g=original	!
2F\	pa-	2A\	pa-	2f\	pa-	2cc\	pa-
2A\	-cem	2c\	-cem	2f\	-cem	2ee-X\	-cem
=13	=13	=13	=13	=13	=13	=13	=13
!LO:LB:g=original	!	!LO:LB:g=original	!	!	!	!	!
4B-\	De-	4B-\	De-	2f\	De-	4dd\	De-
8F\L	.	4A\	.	.	.	4cc\	.
8D\J	.	.	.	.	.	.	.
2BB-/	-us	2B-\	-us	2f\	-us	2dd\	-us
=14	=14	=14	=14	=14	=14	=14	=14
!	!	!	!	!LO:LB:g=original	!	!	!
2.BB-/	red-	2F/	red-	4b-\	red-	4dd\	red-
.	.	.	.	4a\	.	4cc\	.
.	.	4E/	.	4g\	.	4b-\	.
4BBn/	-di-	4F/	-di-	4f\	-di-	4a\	-di-
=15	=15	=15	=15	=15	=15	=15	=15
2C/	-dit	2c\	-dit	2e\	-dit	2g\	-dit
4C/	in	4c\	in	4e\	in	4g\	in
4E/	se	4c\	se	4g\	se	4b-\	se
=16	=16	=16	=16	=16	=16	=16	=16
4F\	re-	4c\	re-	4f\	re-	4a\	re-
4E\	.	4B-\	.	4g\	.	4b-\	.
2F\	-con-	4A\	-con-	4a\	con-	4cc\	-con-
.	.	4B-\	.	4b-\	.	4dd\	.
=17	=17	=17	=17	=17	=17	=17	=17
2F\	-ci-	4c\	-ci-	4a\	-ci-	4cc\	-ci-
.	.	4B-\	-li-	4b-\	.	4dd\	.
4C/	-li-	2c\	-ans	4g\	-li-	4ee\	-li-
4F\	-ans	.	.	4a\	-ans	4ff\	-ans
=18	=18	=18	=18	=18	=18	=18	=18
!	!	!	!	!	!	!LO:LB:g=original	!
2F\	i-	4B-\	i-	4b-\	i-	4dd\	i-
.	.	4c\	.	4a\	.	4cc\	.
!	!	!LO:LB:g=original	!	!	!	!	!
4E\	-ma	2c\	-ma	4g\	-ma	4b-\	-ma
4F\	.	.	.	4f\	.	4a\	.
=19	=19	=19	=19	=19	=19	=19	=19
!LO:LB:g=original	!	!	!	!LO:LB:g=original	!	!	!
2c\	sum-	1c	sum-	2f\	sum-	2a\	sum-
2C/	.	.	.	2e\	.	2g\	.
=20	=20	=20	=20	=20	=20	=20	=20
2F\	-mis	2c\	-mis	2f\	-mis	2a\	-mis
2F\	al-	2f\	al-	2a\	al-	2cc\	al-
=21	=21	=21	=21	=21	=21	=21	=21
2BB-/	-le-	2e\	-le-	2g\	-le-	2b-\	-le-
2C/	-lu-	2c\	-lu-	2e\	-lu-	2g\	-lu-
=22	=22	=22	=22	=22	=22	=22	=22
2F\	-ia	2c\	-ia	2f\	-ia	2a\	-ia
2F\	al-	2f\	al-	2a\	al-	2cc\	al-
=23	=23	=23	=23	=23	=23	=23	=23
2B-\	-le-	2d\	-le-	2b-\	-le-	2dd\	-le-
2c\	-lu-	2c\	-lu-	2g\	-lu-	2ee\	-lu-
=24	=24	=24	=24	=24	=24	=24	=24
!LO:TX:t=P:problem=na kresce podwójna fermata	!	!	!	!LO:TX:t=P:problem=na kresce podwójna fermata	!	!LO:TX:t=P:problem=na kresce podwójna fermata	!
1F	-ia	1c	-ia	1a	-ia.	1ff	-ia
==	==	==	==	==	==	==	==
*-	*-	*-	*-	*-	*-	*-	*-
!!!system-decoration: [(s1,s2,s3,s4)]
!!!ENC: Kamil Watkowski
!!!END: 2021-08-05
